X:1
T:Tranquility (Booth), 10.10.10.6
T:Tranquility (Booth), 10.10.10.6
T:Josiah Booth (1852-1929)
T:Public Domain Courtesy of the Cyber Hymnal™
C:Josiah Booth (1852-1929)
Z:Public Domain
Z:Courtesy of the Cyber Hymnal™
%%score ( 1 2 ) ( 3 4 )
L:1/8
Q:1/4=115
M:4/4
K:Ab
V:1 treble 
V:2 treble 
V:3 bass 
V:4 bass 
V:1
 [Cc]4 [Cc]2 [Cc]2 | [Ec]4 [DB]4 | [CA]3 [CA] [CG]2 [CF]2 | ([DF]4 [B,E]4) | E4 [EA]2 [EA]2 | %5
 [=EG]4 [EG]4 | F3 [FG] [FA]2 [FB]2 | [=Ec]8 | [Fc]4 [FB]2 [Fc]2 | [Fe]4 [Fd]4 | %10
 [FG]3 [FG] [=Ed]2 [Ec]2 | ([=EB]4 [FA]2) [=B,F]2 | (F4 E2) [CA]2 | [DB]4 [Dc]4 | [CA]8 |] %15
V:2
 x8 | x8 | x8 | x8 | E4 x4 | x8 | F3 x5 | x8 | x8 | x8 | x8 | x8 | C6 x2 | x8 | x8 |] %15
V:3
 [A,,E,]4 [A,,E,]2 [A,,A,]2 | [G,,E,]4 [G,,E,]4 | [A,,E,]3 [A,,E,] [A,,E,]2 [A,,A,]2 | %3
 ([B,,A,]4 [D,G,]4) | [C,A,]4 [C,A,]2 [C,C]2 | [C,C]4 [C,B,]4 | [D,A,]3 [D,B,] [D,A,]2 [D,F,]2 | %7
 [C,G,]8 | [F,=A,]4 [F,G,]2 [F,A,]2 | [=A,,C]4 [B,,B,]4 | [C,B,]3 [C,B,] [C,G,]2 [C,C]2 | %11
 (D4 C2) [=D,A,]2 | [E,A,]6 [E,A,]2 | [E,F,]4 [E,G,]4 | [A,,A,]8 |] %15
V:4
 x8 | x8 | x8 | x8 | x8 | x8 | x8 | x8 | x8 | x8 | x8 | F,6 x2 | x8 | x8 | x8 |] %15

